icons/closed-captioning-fill.svg

<svg viewBox="0 0 24 24" fill="currentColor" xmlns="http://www.w3.org/2000/svg"><path d="M21 3C21.5523 3 22 3.44772 22 4V20C22 20.5523 21.5523 21 21 21H3C2.44772 21 2 20.5523 2 20V4C2 3.44772 2.44772 3 3 3H21ZM9 8C6.792 8 5 9.792 5 12C5 14.208 6.792 16 9 16C10.1 16 11.1 15.55 11.828 14.828L10.4144 13.4144C10.0525 13.7762 9.5525 14 9 14C7.895 14 7 13.105 7 12C7 10.895 7.895 10 9 10C9.55 10 10.0483 10.22 10.4153 10.5866L11.829 9.173C11.1049 8.44841 10.1045 8 9 8ZM16 8C13.792 8 12 9.792 12 12C12 14.208 13.792 16 16 16C17.104 16 18.104 15.552 18.828 14.828L17.4144 13.4144C17.0525 13.7762 16.5525 14 16 14C14.895 14 14 13.105 14 12C14 10.895 14.895 10 16 10C16.553 10 17.0534 10.2241 17.4153 10.5866L18.829 9.173C18.1049 8.44841 17.1045 8 16 8Z"/></svg>

<svg xmlns="http://www.w3.org/2000/svg" viewBox="0 0 24 24">
    <g>
        <path fill="none" d="M0 0H24V24H0z"/>
        <path d="M21 3c.552 0 1 .448 1 1v16c0 .552-.448 1-1 1H3c-.552 0-1-.448-1-1V4c0-.552.448-1 1-1h18zM9 8c-2.208 0-4 1.792-4 4s1.792 4 4 4c1.1 0 2.1-.45 2.828-1.172l-1.414-1.414C10.053 13.776 9.553 14 9 14c-1.105 0-2-.895-2-2s.895-2 2-2c.55 0 1.048.22 1.415.587l1.414-1.414C11.105 8.448 10.105 8 9 8zm7 0c-2.208 0-4 1.792-4 4s1.792 4 4 4c1.104 0 2.104-.448 2.828-1.172l-1.414-1.414c-.362.362-.862.586-1.414.586-1.105 0-2-.895-2-2s.895-2 2-2c.553 0 1.053.224 1.415.587l1.414-1.414C18.105 8.448 17.105 8 16 8z"/>
    </g>
</svg>
